X: 34590
T: Rita's Bloody Mary
R: reel
M: 4/4
K: Gmajor
|:g3 d egdc|BG G2 BAGD|GABd g2 fg|ea a2 bafd|
g3 d egdc|BG G2 BAGD|GA (3Bcd gedB|1 AcBA GA (3Bcd:|2 AcBA G2 ga||
|:bg g2 bagd|egdc BG G2|af f2 afdf|(3gfe dc BG G2|
bg g2 bagd|egdc BGGE|DEGA (3Bcd ge|1 dBAB G2 ga:|2 dBAB G4||

